X:70
M:C|
L:1/8
K:D
f|d/d/d df dedf|E/E/E B>A BEBe|d/d/d d>f d>efg|aAFD E2 Df|d/d/d d>f d/d/d d>f|
E/E/E BA BEBe|d/d/d d>f defg|aAFD E2 D||FAAB/c/ dAFD|G>BF>A E/E/E BE|

